brandFactory_export/2.Regular/Certificado_2Regular.svg

<?xml version="1.0" encoding="UTF-8"?>
<svg width="24px" height="24px" viewBox="0 0 24 24" version="1.1" xmlns="http://www.w3.org/2000/svg" xmlns:xlink="http://www.w3.org/1999/xlink">
    <title>2.Regular/Certificado_2Regular</title>
    <g id="Symbols" stroke="none" stroke-width="1" fill="none" fill-rule="evenodd">
        <g id="2.Regular/Certificado_2Regular" fill="#5CB615" fill-rule="nonzero">
            <path d="M19.0840336,22.1647059 C19.1983193,22.1647059 19.312605,22.0504202 19.312605,21.9630252 L19.312605,8.24201681 L16.5798319,8.24201681 C15.3831933,8.24201681 14.3478992,7.84537815 13.5882353,7.09915966 C12.8218487,6.34285714 12.4151261,5.31428571 12.4151261,4.1210084 L12.4151261,1.45882353 L4.69411765,1.45882353 C4.60672269,1.45882353 4.47226891,1.58991597 4.46554622,1.6605042 L4.46554622,8.43697479 L4.51260504,18.010084 L4.46554622,21.9697479 C4.46554622,22.0302521 4.58319328,22.1613445 4.69411765,22.1613445 L19.0840336,22.1613445 L19.0840336,22.1647059 Z M18.707563,6.78319328 L13.8436975,2 L13.8436975,4.11764706 C13.8436975,4.90756303 14.0991597,5.57310924 14.5798319,6.04705882 C15.0672269,6.52773109 15.7596639,6.77983193 16.5764706,6.77983193 L18.707563,6.77983193 L18.707563,6.78319328 Z M20.687395,6.91092437 C20.7243697,6.99831933 20.7445378,7.09579832 20.7445378,7.19663866 L20.7445378,21.9630252 C20.7445378,22.8638655 19.9815126,23.6235294 19.0806723,23.6235294 L4.6907563,23.6235294 C3.80672269,23.6235294 3.02689076,22.8470588 3.02689076,21.9630252 L3.07394958,18.0067227 L3.02689076,8.44033613 L3.02689076,1.6605042 C3.02689076,0.789915966 3.82016807,0 4.6907563,0 L13.4504202,0 C13.7226891,0 13.9882353,0.11092437 14.1798319,0.302521008 L20.4319328,6.45042017 C20.5630252,6.57478992 20.6403361,6.7394958 20.687395,6.91092437 L20.687395,6.91092437 Z M15.5109244,18.6722689 L16.2840336,18.9613445 L14.9495798,16.0134454 C14.4218487,16.4605042 13.7361345,16.7260504 12.9058824,16.8201681 L14.297479,19.8957983 L14.5865546,19.0991597 C14.7310924,18.7260504 15.1478992,18.5344538 15.5109244,18.6722689 Z M9.79663866,19.8991597 L11.205042,16.789916 C10.3882353,16.6554622 9.71932773,16.3428571 9.22521008,15.8352941 L7.80672269,18.9680672 L8.58319328,18.6756303 C8.94957983,18.5411765 9.36302521,18.7294118 9.50420168,19.102521 L9.79663866,19.8991597 L9.79663866,19.8991597 Z M12.1932773,9.75798319 C10.1058824,9.75798319 9.17478992,10.7058824 9.17478992,12.8302521 C9.17478992,14.9546218 10.1058824,15.8991597 12.1932773,15.8991597 C14.2806723,15.8991597 15.2117647,14.9512605 15.2117647,12.8302521 C15.2117647,10.7058824 14.2806723,9.75798319 12.1932773,9.75798319 L12.1932773,9.75798319 Z M15.6521008,15.2403361 L17.3932773,19.0890756 C17.507563,19.3445378 17.4739496,19.6369748 17.2991597,19.8554622 C17.1277311,20.0739496 16.8487395,20.1647059 16.5831933,20.1109244 L15.4033613,19.6705882 L14.9831933,20.8134454 C14.8319328,21.112605 14.589916,21.2605042 14.3243697,21.2605042 L14.3042017,21.2605042 C14.0285714,21.2537815 13.7865546,21.0890756 13.6689076,20.8369748 L12.0487395,17.2571429 L10.4285714,20.8369748 C10.3142857,21.0890756 10.0689076,21.2537815 9.79327731,21.2605042 L9.77310924,21.2605042 C9.50756303,21.2605042 9.26554622,21.112605 9.13781513,20.8705882 L8.69411765,19.6705882 L7.57142857,20.0907563 C7.24537815,20.1680672 6.96638655,20.0705882 6.79495798,19.8554622 C6.62016807,19.6369748 6.58655462,19.3445378 6.70084034,19.0890756 L8.54621849,15.0151261 C8.56302521,14.9747899 8.59663866,14.9445378 8.62016807,14.9109244 C8.36470588,14.3428571 8.22016807,13.6605042 8.22016807,12.8336134 C8.22016807,10.0806723 9.68235294,8.78991597 12.1932773,8.78991597 C14.7042017,8.78991597 16.1697479,10.0806723 16.1697479,12.8336134 C16.1697479,13.8084034 15.9781513,14.5915966 15.6285714,15.2067227 C15.6352941,15.2168067 15.6453782,15.2268908 15.6521008,15.2403361 Z M11.5378151,12.4403361 L10.8857143,12.5445378 L11.4268908,13.0319328 C11.5176471,13.1260504 11.5613445,13.2739496 11.5411765,13.405042 L11.4201681,14.1579832 L11.9445378,13.8117647 C11.9613445,13.8016807 11.9747899,13.7882353 11.9915966,13.7781513 L11.994958,13.7747899 C12.1260504,13.7008403 12.2941176,13.7042017 12.4218487,13.794958 L12.9731092,14.1008403 L12.8420168,13.405042 C12.8218487,13.2739496 12.8689076,13.1226891 12.9596639,13.0285714 L13.4739496,12.497479 L12.7848739,12.4302521 C12.6537815,12.410084 12.5327731,12.3193277 12.4756303,12.2016807 L12.1529412,11.5092437 L11.9109244,12.194958 C11.8470588,12.3394958 11.6957983,12.4403361 11.5378151,12.4403361 Z M10.7109244,13.4655462 L10.3344538,13.0789916 C10.1260504,12.8605042 10.0554622,12.5478992 10.1495798,12.2588235 C10.2436975,11.9731092 10.4789916,11.7680672 10.7680672,11.7243697 L11.2722689,11.6470588 L11.5008403,11.1563025 C11.7563025,10.5983193 12.6302521,10.5983193 12.892437,11.1563025 L13.1243697,11.6537815 L13.6285714,11.7310924 C13.9142857,11.7747899 14.1529412,11.9764706 14.2470588,12.2621849 C14.3411765,12.5546218 14.2705882,12.8672269 14.0621849,13.0823529 L13.6857143,13.4722689 L13.7764706,14.0268908 C13.8235294,14.3361345 13.702521,14.6352941 13.4571429,14.8134454 C13.2151261,14.9848739 12.8957983,15.0016807 12.6470588,14.8605042 L12.2033613,14.6117647 L11.7563025,14.8605042 C11.6420168,14.9243697 11.5142857,14.9579832 11.3865546,14.9579832 C11.2319328,14.9579832 11.0773109,14.9109244 10.9428571,14.8134454 C10.697479,14.6386555 10.5764706,14.3361345 10.6268908,14.0302521 L10.7109244,13.4655462 L10.7109244,13.4655462 Z" id="Certificado_2Regular"></path>
        </g>
    </g>
</svg>

<svg width="24" height="24" viewBox="0 0 24 24" xmlns="http://www.w3.org/2000/svg"><path d="M19.084 22.165c.114 0 .229-.115.229-.202V8.242H16.58c-1.197 0-2.232-.397-2.992-1.143-.766-.756-1.173-1.785-1.173-2.978V1.459h-7.72c-.088 0-.223.13-.23.202v6.776l.048 9.573-.047 3.96c0 .06.117.191.228.191h14.39v.004zm-.376-15.382L13.844 2v2.118c0 .79.255 1.455.736 1.93.487.48 1.18.732 1.996.732h2.132v.003zm1.98.128a.735.735 0 01.057.286v14.766c0 .9-.763 1.66-1.664 1.66H4.69c-.884 0-1.664-.776-1.664-1.66l.047-3.956-.047-9.567V1.66C3.027.79 3.82 0 4.69 0h8.76c.272 0 .537.11.729.303l6.252 6.147c.131.125.208.29.255.46zM15.51 18.672l.773.29-1.334-2.949c-.528.448-1.214.713-2.044.807l1.391 3.076.29-.797a.726.726 0 01.924-.427zM9.797 19.9l1.408-3.11c-.817-.134-1.486-.446-1.98-.954l-1.418 3.133.776-.292a.723.723 0 01.921.427l.293.796zm2.396-10.141c-2.087 0-3.018.948-3.018 3.072 0 2.125.93 3.07 3.018 3.07 2.088 0 3.019-.949 3.019-3.07 0-2.124-.931-3.072-3.019-3.072zm3.46 5.482l1.74 3.85a.737.737 0 01-.094.765.723.723 0 01-.716.256l-1.18-.44-.42 1.142c-.151.3-.393.448-.659.448h-.02a.72.72 0 01-.635-.424l-1.62-3.58-1.62 3.58a.717.717 0 01-.636.424h-.02a.718.718 0 01-.635-.39l-.444-1.2-1.123.42c-.326.077-.605-.02-.776-.236a.737.737 0 01-.094-.766l1.845-4.074c.017-.04.05-.07.074-.104-.255-.568-.4-1.25-.4-2.077 0-2.753 1.462-4.044 3.973-4.044s3.977 1.29 3.977 4.044c0 .974-.192 1.758-.541 2.373.006.01.016.02.023.033zm-4.115-2.8l-.652.105.54.487c.092.094.135.242.115.373l-.12.753.524-.346c.016-.01.03-.024.047-.034l.003-.003a.4.4 0 01.427.02l.551.306-.131-.696a.465.465 0 01.118-.376l.514-.532-.69-.067a.426.426 0 01-.308-.228l-.323-.693-.242.686a.418.418 0 01-.373.245zm-.827 1.026l-.377-.387a.817.817 0 01-.184-.82.775.775 0 01.618-.535l.504-.077.229-.49c.255-.559 1.13-.559 1.391 0l.232.497.505.077a.776.776 0 01.618.531.813.813 0 01-.185.82l-.376.39.09.555a.81.81 0 01-.319.786.76.76 0 01-.81.048l-.444-.25-.447.25a.752.752 0 01-.813-.047.796.796 0 01-.316-.784l.084-.564z" fill="#5CB615" fill-rule="nonzero"/></svg>
